austria/municipalities/40507.svg

<?xml version="1.0" encoding="UTF-8"?>
<!DOCTYPE svg PUBLIC "-//W3C//DTD SVG 1.1//EN" "http://www.w3.org/Graphics/SVG/1.1/DTD/svg11.dtd">
<svg xmlns="http://www.w3.org/2000/svg" version="1.1" width="166px" height="207px" style="shape-rendering:geometricPrecision; text-rendering:geometricPrecision; image-rendering:optimizeQuality; fill-rule:evenodd; clip-rule:evenodd" xmlns:xlink="http://www.w3.org/1999/xlink">
<g><path style="opacity:1" fill="#000000" d="M -0.5,-0.5 C 54.8333,-0.5 110.167,-0.5 165.5,-0.5C 165.5,44.1667 165.5,88.8333 165.5,133.5C 157.475,172.524 134.142,196.858 95.5,206.5C 86.8333,206.5 78.1667,206.5 69.5,206.5C 29.9784,196.644 6.64509,171.644 -0.5,131.5C -0.5,87.5 -0.5,43.5 -0.5,-0.5 Z"/></g>
<g><path style="opacity:1" fill="#fefffe" d="M 3.5,3.5 C 29.5,3.5 55.5,3.5 81.5,3.5C 81.6664,11.84 81.4997,20.1733 81,28.5C 80.483,31.9199 79.6497,35.2532 78.5,38.5C 73.871,39.5647 69.7043,41.5647 66,44.5C 61.5094,40.9213 56.8427,37.5879 52,34.5C 54.7703,39.3557 57.6036,44.3557 60.5,49.5C 58.6989,53.4052 57.1989,57.4052 56,61.5C 50.0868,62.8174 44.2535,64.3174 38.5,66C 44.3897,67.0774 50.223,68.244 56,69.5C 56.9292,74.0263 58.4292,78.3596 60.5,82.5C 58.0441,87.9027 54.7108,92.7361 50.5,97C 51.9078,97.3152 53.2411,96.9819 54.5,96C 58.0835,92.5838 62.0835,89.7505 66.5,87.5C 70.4611,90.1534 74.7944,91.82 79.5,92.5C 81.2594,105.088 81.9261,117.754 81.5,130.5C 55.5,130.5 29.5,130.5 3.5,130.5C 3.5,88.1667 3.5,45.8333 3.5,3.5 Z"/></g>
<g><path style="opacity:1" fill="#cb0000" d="M 83.5,3.5 C 109.5,3.5 135.5,3.5 161.5,3.5C 161.5,45.8333 161.5,88.1667 161.5,130.5C 135.5,130.5 109.5,130.5 83.5,130.5C 83.1076,117.752 83.7742,105.085 85.5,92.5C 90.2056,91.82 94.5389,90.1534 98.5,87.5C 104.106,90.5525 109.273,94.2192 114,98.5C 114.667,97.8333 114.667,97.1667 114,96.5C 110.5,91.6667 107,86.8333 103.5,82C 106.419,78.327 108.419,74.1603 109.5,69.5C 115.086,68.0107 120.753,66.844 126.5,66C 120.896,64.2876 115.229,62.7876 109.5,61.5C 108.357,56.8933 106.357,52.7266 103.5,49C 117.911,31.6222 116.411,30.1222 99,44.5C 95.2734,41.6433 91.1067,39.6433 86.5,38.5C 85.5604,35.1975 84.727,31.8642 84,28.5C 83.5003,20.1733 83.3336,11.84 83.5,3.5 Z"/></g>
<g><path style="opacity:1" fill="#cb0000" d="M 77.5,43.5 C 78.8333,43.5 80.1667,43.5 81.5,43.5C 81.8327,58.5148 81.4993,73.5148 80.5,88.5C 63.7412,83.9846 57.5746,73.318 62,56.5C 65.258,49.7302 70.4247,45.3969 77.5,43.5 Z"/></g>
<g><path style="opacity:1" fill="#fefffe" d="M 83.5,43.5 C 101.414,46.9705 107.914,57.6372 103,75.5C 98.8079,82.6765 92.6413,87.0098 84.5,88.5C 83.5007,73.5148 83.1673,58.5148 83.5,43.5 Z"/></g>
<g><path style="opacity:1" fill="#fefffe" d="M -0.5,131.5 C 6.64509,171.644 29.9784,196.644 69.5,206.5C 46.1667,206.5 22.8333,206.5 -0.5,206.5C -0.5,181.5 -0.5,156.5 -0.5,131.5 Z"/></g>
<g><path style="opacity:1" fill="#fefffe" d="M 165.5,133.5 C 165.5,157.833 165.5,182.167 165.5,206.5C 142.167,206.5 118.833,206.5 95.5,206.5C 134.142,196.858 157.475,172.524 165.5,133.5 Z"/></g>
<g><path style="opacity:1" fill="#006632" d="M 3.5,135.5 C 56.0016,134.169 108.668,134.169 161.5,135.5C 160.189,140.892 158.689,146.226 157,151.5C 143.816,156.925 130.649,156.758 117.5,151C 111.833,150.333 106.167,150.333 100.5,151C 94.2739,153.682 87.7739,155.182 81,155.5C 73.07,155.034 65.4033,153.368 58,150.5C 49.7632,151.7 41.9299,154.2 34.5,158C 26.267,159.153 18.267,158.32 10.5,155.5C 7.5359,148.937 5.20257,142.27 3.5,135.5 Z"/></g>
<g><path style="opacity:1" fill="#fefffe" d="M 103.5,152.5 C 115.069,153.08 126.402,155.08 137.5,158.5C 142.722,157.769 147.889,156.769 153,155.5C 153.5,155.833 154,156.167 154.5,156.5C 152.667,160.167 150.833,163.833 149,167.5C 146.958,169.604 144.458,170.771 141.5,171C 136.167,171.667 130.833,171.667 125.5,171C 119.434,169.048 113.267,167.548 107,166.5C 98.7135,168.155 90.3801,169.489 82,170.5C 73.4183,169.73 64.9183,168.397 56.5,166.5C 51.0892,167.704 45.7559,169.204 40.5,171C 33.5,171.667 26.5,171.667 19.5,171C 16.4724,167.272 13.8057,163.272 11.5,159C 19.6938,160.448 28.0271,160.781 36.5,160C 42.495,155.839 49.1617,153.673 56.5,153.5C 64.5781,154.747 72.5781,156.414 80.5,158.5C 88.3967,156.859 96.0634,154.859 103.5,152.5 Z"/></g>
<g><path style="opacity:1" fill="#006632" d="M 50.5,169.5 C 61.116,169.777 71.616,171.11 82,173.5C 89.996,171.999 97.996,170.666 106,169.5C 111.766,169.422 117.266,170.589 122.5,173C 129.5,173.333 136.5,173.667 143.5,174C 123.813,196.904 98.8127,206.237 68.5,202C 49.5703,198.039 33.9036,188.706 21.5,174C 27.7866,174.566 34.1199,174.233 40.5,173C 44.1632,172.428 47.4965,171.262 50.5,169.5 Z"/></g>
</svg>

<svg xmlns="http://www.w3.org/2000/svg" width="166" height="207" style="shape-rendering:geometricPrecision;text-rendering:geometricPrecision;image-rendering:optimizeQuality;fill-rule:evenodd;clip-rule:evenodd"><path style="opacity:1" d="M-.5-.5h166v134c-8.025 39.024-31.358 63.358-70 73h-26c-39.522-9.856-62.855-34.856-70-75V-.5z"/><path style="opacity:1" fill="#fefffe" d="M3.5 3.5h78c.166 8.34 0 16.673-.5 25a54.129 54.129 0 0 1-2.5 10c-4.629 1.065-8.796 3.065-12.5 6a163.46 163.46 0 0 0-14-10c2.77 4.856 5.604 9.856 8.5 15a86.963 86.963 0 0 0-4.5 12A276.674 276.674 0 0 0 38.5 66 538.31 538.31 0 0 1 56 69.5c.93 4.526 2.43 8.86 4.5 13-2.456 5.403-5.79 10.236-10 14.5 1.408.315 2.741-.018 4-1a50.58 50.58 0 0 1 12-8.5 31.056 31.056 0 0 0 13 5 220.728 220.728 0 0 1 2 38h-78V3.5z"/><path style="opacity:1" fill="#cb0000" d="M83.5 3.5h78v127h-78a227.66 227.66 0 0 1 2-38 31.056 31.056 0 0 0 13-5 80.008 80.008 0 0 1 15.5 11c.667-.667.667-1.333 0-2L103.5 82c2.919-3.673 4.919-7.84 6-12.5a151.238 151.238 0 0 1 17-3.5 232.964 232.964 0 0 0-17-4.5c-1.143-4.607-3.143-8.773-6-12.5 14.411-17.378 12.911-18.878-4.5-4.5-3.727-2.857-7.893-4.857-12.5-6a160.14 160.14 0 0 1-2.5-10c-.5-8.327-.666-16.66-.5-25zM77.5 43.5h4c.333 15.015 0 30.015-1 45-16.759-4.515-22.925-15.182-18.5-32 3.258-6.77 8.425-11.103 15.5-13z"/><path style="opacity:1" fill="#fefffe" d="M83.5 43.5c17.914 3.47 24.414 14.137 19.5 32-4.192 7.177-10.359 11.51-18.5 13a507.132 507.132 0 0 1-1-45zM-.5 131.5c7.145 40.144 30.478 65.144 70 75h-70v-75zM165.5 133.5v73h-70c38.642-9.642 61.975-33.976 70-73z"/><path style="opacity:1" fill="#006632" d="M3.5 135.5a3126.462 3126.462 0 0 1 158 0 232.708 232.708 0 0 1-4.5 16c-13.184 5.425-26.351 5.258-39.5-.5a72.464 72.464 0 0 0-17 0 55.47 55.47 0 0 1-19.5 4.5 75.557 75.557 0 0 1-23-5 75.02 75.02 0 0 0-23.5 7.5c-8.233 1.153-16.233.32-24-2.5-2.964-6.563-5.297-13.23-7-20z"/><path style="opacity:1" fill="#fefffe" d="M103.5 152.5c11.569.58 22.902 2.58 34 6a151.359 151.359 0 0 0 15.5-3l1.5 1-5.5 11c-2.042 2.104-4.542 3.271-7.5 3.5a64.218 64.218 0 0 1-16 0 130.678 130.678 0 0 0-18.5-4.5 328.486 328.486 0 0 1-25 4 195.245 195.245 0 0 1-25.5-4 150.62 150.62 0 0 0-16 4.5c-7 .667-14 .667-21 0a77 77 0 0 1-8-12c8.194 1.448 16.527 1.781 25 1 5.995-4.161 12.662-6.327 20-6.5a234.956 234.956 0 0 1 24 5 232.391 232.391 0 0 0 23-6z"/><path style="opacity:1" fill="#006632" d="M50.5 169.5a158.526 158.526 0 0 1 31.5 4 594.874 594.874 0 0 1 24-4 37.737 37.737 0 0 1 16.5 3.5l21 1c-19.687 22.904-44.687 32.237-75 28-18.93-3.961-34.596-13.294-47-28 6.287.566 12.62.233 19-1 3.663-.572 6.996-1.738 10-3.5z"/></svg>
